X: 3071
T: Earl of Home's    Strathspey
C: by Nath:Gow.
%R: strathspey
B: Niel Gow & Sons "A Third Collection of Strathspey Reels, etc." v.3 p.7 #1 (top 6 staves continued from p.6)
Z: 2022 John Chambers <jc:trillian.mit.edu>
M: C
L: 1/8
K: F
% - - - - - - - - - -
V: 1 staves=2
f |!segno!\
c<FTc>A dGBd | c<FTc>A dBcA | B<dA<c TG>ABd | cFTc>A cFA :| c | Tf>g {fg}af e>fga | Tf>g {fg}a>f gefd |
cAf>A TG>ABd |cFTc>A cFAc || (f/e/f/g/) af e>fga | Tf>g {fg}af gefd | c<Af>A TG>ABd | cA cd/e/ fcd<!segno!f |]
% - - - - - - - - - -
% Voice 2 preserves the staff layout in the book.
V: 2 clef=bass middle=d
z |!segno!\
f2f2 g2g2 | f2f2 f2f2 | e2f2 c'2b2 | a2f2 f2f :| z | f2f2 c2c2 | f2f2 c'2b2 |
a2f2 c2B2 | A2F2 f2F2 || f2f2 c'2c2 | f2f2 c2B2 | A2f2 c'2b2 | a2f2 F2!segno!F2 |]


